packages/astro-components-stencil/src/icons/laptop-chromebook.svg

<svg xmlns="http://www.w3.org/2000/svg" viewBox="0 0 24 24"><g xmlns="http://www.w3.org/2000/svg" id="laptop-chromebook" fill-rule="nonzero">
            <path d="M23 18h-1V5c0-1.1-.9-2-2-2H4c-1.1 0-2 .9-2 2v13H1c-.55 0-1 .45-1 1s.45 1 1 1h22c.55 0 1-.45 1-1s-.45-1-1-1zm-9.5 0h-3c-.28 0-.5-.22-.5-.5s.22-.5.5-.5h3c.28 0 .5.22.5.5s-.22.5-.5.5zm6.5-3H4V6c0-.55.45-1 1-1h14c.55 0 1 .45 1 1v9z"/>
        </g></svg>

<svg width="24" height="24" viewBox="0 0 24 24" fill="none" xmlns="http://www.w3.org/2000/svg">
<path fill-rule="evenodd" clip-rule="evenodd" d="M23 18H22V5C22 3.9 21.1 3 20 3H4C2.9 3 2 3.9 2 5V18H1C0.45 18 0 18.45 0 19C0 19.55 0.45 20 1 20H23C23.55 20 24 19.55 24 19C24 18.45 23.55 18 23 18ZM13.5 18H10.5C10.22 18 10 17.78 10 17.5C10 17.22 10.22 17 10.5 17H13.5C13.78 17 14 17.22 14 17.5C14 17.78 13.78 18 13.5 18ZM4 15H20V6C20 5.45 19.55 5 19 5H5C4.45 5 4 5.45 4 6V15Z" fill="black"/>
</svg>
